public/library/privy-text-light.svg

<svg width="346" height="78" viewBox="0 0 346 78" fill="none" xmlns="http://www.w3.org/2000/svg">
<path fill-rule="evenodd" clip-rule="evenodd" d="M253.808 41.4359H252.758L239.096 1.81787H223.094V3.45587L242.366 58.7819H263.618L282.896 3.45587V1.81787H267.59L253.802 41.4359H253.808Z" fill="#010110"/>
<path d="M218.834 1.81787H202.922V58.7759H218.834V1.81787Z" fill="#010110"/>
<path fill-rule="evenodd" clip-rule="evenodd" d="M330.164 1.81215H330.176L316.388 41.4422H315.338L301.676 1.81815H285.674V3.46815L306.608 63.5762H286.784V76.7702H306.158C314.432 76.7702 320.876 73.9802 324.002 65.0762C324.422 63.8882 345.47 3.45615 345.47 3.45615V1.80615H330.164V1.81215Z" fill="#010110"/>
<path fill-rule="evenodd" clip-rule="evenodd" d="M121.832 0.27002C114.596 0.27002 107.834 3.95402 103.616 10.878H102.638V1.87802H87.47V76.752H103.586V51.528H104.576C104.684 51.678 104.792 51.834 104.9 51.96C107.618 55.266 113.966 60.306 121.862 60.306C136.232 60.306 146.06 47.886 146.06 30.294C146.06 12.702 135.746 0.27002 121.832 0.27002ZM117.02 47.958C109.52 47.958 104.342 42.114 104.342 30.3C104.342 18.486 109.52 12.642 117.02 12.642C124.52 12.642 129.95 18.612 129.95 30.3C129.95 41.988 124.646 47.958 117.02 47.958Z" fill="#010110"/>
<path fill-rule="evenodd" clip-rule="evenodd" d="M186.032 1.81201C178.562 1.81201 173.768 3.06001 170.966 10.878H170.006V1.81801H146.936V14.898H152.084C153.782 14.898 154.616 15.498 154.832 16.89V27.762H154.892V58.782H171.008V28.566C171.008 20.742 173.132 15.948 180.956 15.948H197.84V1.81201H186.038H186.032Z" fill="#010110"/>
<path d="M30.53 60.2881C47.096 60.2881 60.53 46.8541 60.53 30.2881C60.53 13.7221 47.096 0.288086 30.53 0.288086C13.964 0.288086 0.530029 13.7221 0.530029 30.2881C0.530029 46.8541 13.964 60.2881 30.53 60.2881Z" fill="#010110"/>
<path d="M30.53 77.73C41.852 77.73 51.032 75.798 51.032 73.428C51.032 71.058 41.858 69.126 30.53 69.126C19.202 69.126 10.028 71.058 10.028 73.428C10.028 75.798 19.202 77.73 30.53 77.73Z" fill="#010110"/>
</svg>

<svg xmlns="http://www.w3.org/2000/svg" width="346" height="78" fill="none" viewBox="0 0 346 78"><path fill="#010110" fill-rule="evenodd" d="M253.808 41.436h-1.05L239.096 1.818h-16.002v1.638l19.272 55.326h21.252l19.278-55.326V1.818H267.59l-13.788 39.618z" clip-rule="evenodd"/><path fill="#010110" d="M218.834 1.818h-15.912v56.958h15.912z"/><path fill="#010110" fill-rule="evenodd" d="M330.164 1.812h.012l-13.788 39.63h-1.05L301.676 1.818h-16.002v1.65l20.934 60.108h-19.824V76.77h19.374c8.274 0 14.718-2.79 17.844-11.694.42-1.188 21.468-61.62 21.468-61.62v-1.65h-15.306zM121.832.27c-7.236 0-13.998 3.684-18.216 10.608h-.978v-9H87.47v74.874h16.116V51.528h.99c.108.15.216.306.324.432 2.718 3.306 9.066 8.346 16.962 8.346 14.37 0 24.198-12.42 24.198-30.012S135.746.27 121.832.27m-4.812 47.688c-7.5 0-12.678-5.844-12.678-17.658s5.178-17.658 12.678-17.658 12.93 5.97 12.93 17.658-5.304 17.658-12.93 17.658M186.032 1.812c-7.47 0-12.264 1.248-15.066 9.066h-.96v-9.06h-23.07v13.08h5.148c1.698 0 2.532.6 2.748 1.992v10.872h.06v31.02h16.116V28.566c0-7.824 2.124-12.618 9.948-12.618h16.884V1.812h-11.808" clip-rule="evenodd"/><path fill="#010110" d="M30.53 60.288c16.566 0 30-13.434 30-30s-13.434-30-30-30-30 13.434-30 30 13.434 30 30 30M30.53 77.73c11.322 0 20.502-1.932 20.502-4.302s-9.174-4.302-20.502-4.302-20.502 1.932-20.502 4.302 9.174 4.302 20.502 4.302"/></svg>
